svg/u1fa9a.svg

<svg viewBox="0 0 128 128" xmlns="http://www.w3.org/2000/svg">
  <g>
    <g>
      <path d="M120.52,85.43l-26.05-17.6c-7.39-3.49-11.8-0.57-14.06,3.24l-7.49,12.65 c-2.04,3.17-2.12,5.84-1.88,10.64l0.84,10.16c0.45,4.61,2.59,5.98,5.03,7.92l7.99,5.94c0,0,9.98,7.85,16.6-0.68L120.52,85.43z M100.98,112.63c-1.77,2.44-7.15,3.8-10.57,1.41c-2.42-1.69-7.17-6.23-2.12-13.64l11.41-16.66c7.17-10.34,19.72,1.2,16.37,7.01 L100.98,112.63z" fill="#A06841"/>
      <g>
        <path d="M26.26,4.83L24.1,4L5.02,16.04c-0.75,0.47-0.66,1.58,0.15,1.93l4.81,2.08 c0.95,0.41,1.23,1.62,0.56,2.41l-3.46,4.12c-0.53,0.62-0.22,1.59,0.58,1.78l4.53,1.08c1.07,0.25,1.57,1.7,0.93,2.59l-2.69,3.74 c-0.48,0.67-0.08,1.6,0.73,1.72l4.68,0.69c1.1,0.16,1.7,1.58,1.1,2.52l-2.48,3.91c-0.44,0.7,0.02,1.61,0.84,1.68l4.73,0.37 c1.12,0.09,1.49,1.51,0.94,2.49l-2.22,3.98c-0.41,0.73,0.12,1.64,0.96,1.63l4.71-0.03c1.14-0.01,1.82,1.3,1.32,2.33l-2.1,4.29 c-0.37,0.75,0.21,1.62,1.05,1.58l4.73-0.27c1.13-0.06,2,1.23,1.57,2.28L29.2,69.3c-0.32,0.78,0.32,1.61,1.15,1.5l4.68-0.59 c1.12-0.14,2.54,0.67,2.07,2.1l-1.49,4.51c-0.26,0.8,0.32,1.65,1.27,1.46l4.6-0.92c1.11-0.22,1.8,0.6,1.53,1.7l-1.19,5 c-0.2,0.81,0.54,1.53,1.35,1.32l4.49-1.2c1.41-0.45,2.67,0.36,2.4,1.84l-0.75,4.58c-0.14,0.82,0.66,1.49,1.45,1.21l4.44-1.57 c1.06-0.38,2.42,0.03,2.32,1.15l-0.51,5.24c-0.08,0.84,0.78,1.44,1.54,1.1l4.26-1.93c1.02-0.46,2.08-0.11,2.02,1.75l0.01,4.68 c0,0.85,0.93,1.38,1.66,0.93l9.89-5.99c-0.22-0.1,12.56-32.01,12.56-32.01C51,45.05,31.85,14.09,26.26,4.83z M25.09,17.35 c-0.26,1.34-1.36,2.43-2.7,2.67c-2.41,0.45-4.47-1.63-4.01-4.04c0.26-1.34,1.36-2.43,2.7-2.67 C23.49,12.86,25.56,14.94,25.09,17.35z" fill="#78A3AC"/>
        <path d="M26.26,4.83L7.17,16.87c-0.75,0.47-0.66,1.58,0.15,1.93l4.81,2.08c0.95,0.41,1.23,1.62,0.56,2.41 L9.45,27.1c-0.53,0.62-0.22,1.59,0.58,1.78l4.53,1.08c1.07,0.25,1.53,1.51,0.89,2.4l-2.69,3.74c-0.48,0.67-0.08,1.6,0.73,1.72 l4.68,0.69c1.1,0.16,1.67,1.41,1.08,2.35l-2.48,3.91c-0.44,0.7,0.02,1.61,0.84,1.68l4.73,0.37c1.12,0.09,1.77,1.31,1.22,2.29 l-2.22,3.98c-0.41,0.73,0.12,1.64,0.96,1.63l4.71-0.03c1.14-0.01,1.9,1.19,1.39,2.22l-2.1,4.29c-0.37,0.75,0.21,1.62,1.05,1.58 l4.73-0.27c1.13-0.06,1.94,1.07,1.51,2.12l-1.79,4.37c-0.32,0.78,0.32,1.61,1.15,1.5l4.68-0.59c1.12-0.14,2.01,0.94,1.66,2.01 l-1.49,4.51c-0.26,0.8,0.43,1.58,1.26,1.42l4.6-0.92c1.11-0.22,2.07,0.78,1.8,1.88l-1.13,4.61c-0.2,0.81,0.54,1.53,1.35,1.32 l4.49-1.2c1.41-0.45,2.21,0.27,1.94,1.76l-0.75,4.58c-0.14,0.82,0.66,1.49,1.45,1.21l4.44-1.57c1.06-0.38,2.15,0.47,2.05,1.59 l-0.42,4.68c-0.08,0.84,0.78,1.44,1.54,1.1l4.26-1.93c1.02-0.46,2.17,0.28,2.18,1.4l0.01,4.68c0,0.85,0.93,1.38,1.66,0.93 l9.89-5.99c-0.22-0.1,13.75-29.53,13.75-29.53C46.39,42.18,26.26,4.83,26.26,4.83z M27,17.91c-0.26,1.34-1.36,2.43-2.7,2.67 c-2.41,0.45-4.47-1.63-4.01-4.04c0.26-1.34,1.36-2.43,2.7-2.67C25.4,13.42,27.46,15.5,27,17.91z" fill="#C3D9DB"/>
        <path d="M26.26,4.83L7.17,16.87c-0.75,0.47-0.66,1.58,0.15,1.93l4.81,2.08c0.95,0.41,1.23,1.62,0.56,2.41 L9.45,27.1c-0.53,0.62-0.22,1.59,0.58,1.78l4.53,1.08c1.07,0.25,1.53,1.51,0.89,2.4l-2.69,3.74c-0.48,0.67-0.08,1.6,0.73,1.72 l4.68,0.69c1.1,0.16,1.67,1.41,1.08,2.35l-2.48,3.91c-0.44,0.7,0.02,1.61,0.84,1.68l4.73,0.37c1.12,0.09,1.77,1.31,1.22,2.29 l-2.22,3.98c-0.41,0.73,0.12,1.64,0.96,1.63l4.71-0.03c1.14-0.01,1.9,1.19,1.39,2.22l-2.1,4.29c-0.37,0.75,0.21,1.62,1.05,1.58 l4.73-0.27c1.13-0.06,1.94,1.07,1.51,2.12l-1.79,4.37c-0.32,0.78,0.32,1.61,1.15,1.5l4.68-0.59c1.12-0.14,2.01,0.94,1.66,2.01 l-1.49,4.51c-0.26,0.8,0.43,1.58,1.26,1.42l4.6-0.92c1.11-0.22,2.07,0.78,1.8,1.88l-1.13,4.61c-0.2,0.81,0.54,1.53,1.35,1.32 l4.49-1.2c1.41-0.45,2.21,0.27,1.94,1.76l-0.75,4.58c-0.14,0.82,0.66,1.49,1.45,1.21l4.44-1.57c1.06-0.38,2.15,0.47,2.05,1.59 l-0.42,4.68c-0.08,0.84,0.78,1.44,1.54,1.1l4.26-1.93c1.02-0.46,2.17,0.28,2.18,1.4l0.01,4.68c0,0.85,0.93,1.38,1.66,0.93 l9.89-5.99c-0.22-0.1,13.75-29.53,13.75-29.53C46.39,42.18,26.26,4.83,26.26,4.83z M27,17.91c-0.26,1.34-1.36,2.43-2.7,2.67 c-2.41,0.45-4.47-1.63-4.01-4.04c0.26-1.34,1.36-2.43,2.7-2.67C25.4,13.42,27.46,15.5,27,17.91z" fill="#C9E3E6"/>
        <path d="M120.52,82.12L98.76,67.83c-7.39-3.49-11.8-0.57-14.06,3.24l-9.35,14.58 c-2.04,3.17-2.12,5.84-1.88,10.64l0.84,10.16c0.45,4.61,4.28,7.26,4.98,7.76l10.05,7.36c0,0,7.97,6.58,14.59-1.95L120.52,82.12z M98.61,106.82c-1.77,2.44-4.98,3.89-7.42,2.24c-2.44-1.65-3.93-3.23-2.03-6.03l9.46-13.83c1.9-2.8,5.12-4.83,7.56-3.18 c2.44,1.65,2.88,5.26,0.99,8.06L98.61,106.82z" fill="#A06841"/>
        <path d="M120.52,82.12L99.43,68.2c-3.04-1.95-7.14-1-9.15,2.13l-9.35,14.58 c-2.18,3.49-2.67,6.23-2.38,11.03l0.56,9.51c0.3,3.88,1.43,5.08,5.28,8.12l10.92,7.46c3.05,1.95,7.14,1,9.15-2.14l17.94-27.58 C124.41,88.2,123.57,84.08,120.52,82.12z M102.06,108.38c-1.83,2.85-5.55,3.72-8.32,1.94c-2.77-1.77-3.53-5.52-1.71-8.37 l10.22-15.93c1.83-2.85,5.55-3.72,8.32-1.94c2.77,1.77,3.53,5.52,1.71,8.37L102.06,108.38z" fill="#D68B52"/>
      </g>
    </g>
    <path d="M44.34,29.12l-9.47,41.12l2.78-0.35c1.12-0.14,2.01,0.94,1.66,2.01l-1.49,4.51 c-0.26,0.8,0.43,1.58,1.26,1.42l4.6-0.92c1.11-0.22,2.07,0.78,1.8,1.88l-1.13,4.61c-0.2,0.81,0.54,1.53,1.35,1.32l4.49-1.2 c1.41-0.45,2.21,0.27,1.94,1.76l-0.75,4.58c-0.14,0.82,0.66,1.49,1.45,1.21l1.69-0.6l12.57-40.28 C57.88,43.04,50.33,35.73,44.34,29.12z" opacity="0.5" fill="#FFFFFF"/>
  </g>
</svg>

<svg viewBox="0 0 128 128" xmlns="http://www.w3.org/2000/svg">
  <defs/>
  <path d="M120.52,85.43 L94.47,67.83 C87.08,64.34 82.67,67.26 80.41,71.07 L72.92,83.72 C70.88,86.89 70.8,89.56 71.04,94.36 L71.88,104.52 C72.33,109.13 74.47,110.5 76.91,112.44 L84.9,118.38 C84.9,118.38 94.88,126.23 101.5,117.7 L120.52,85.43 Z M100.98,112.63 C99.21,115.07 93.83,116.43 90.41,114.04 C87.99,112.35 83.24,107.81 88.29,100.4 L99.7,83.74 C106.87,73.4 119.42,84.94 116.07,90.75 L100.98,112.63 Z" fill="#A06841"/>
  <path d="M26.26,4.83 L24.1,4 L5.02,16.04 C4.27,16.51 4.36,17.62 5.17,17.97 L9.98,20.05 C10.93,20.46 11.21,21.67 10.54,22.46 L7.08,26.58 C6.55,27.2 6.86,28.17 7.66,28.36 L12.19,29.44 C13.26,29.69 13.76,31.14 13.12,32.03 L10.43,35.77 C9.95,36.44 10.35,37.37 11.16,37.49 L15.84,38.18 C16.94,38.34 17.54,39.76 16.94,40.7 L14.46,44.61 C14.02,45.31 14.48,46.22 15.3,46.29 L20.03,46.66 C21.15,46.75 21.52,48.17 20.97,49.15 L18.75,53.13 C18.34,53.86 18.87,54.77 19.71,54.76 L24.42,54.73 C25.56,54.72 26.24,56.03 25.74,57.06 L23.64,61.35 C23.27,62.1 23.85,62.97 24.69,62.93 L29.42,62.66 C30.55,62.6 31.42,63.89 30.99,64.94 L29.2,69.3 C28.88,70.08 29.52,70.91 30.35,70.8 L35.03,70.21 C36.15,70.07 37.57,70.88 37.1,72.31 L35.61,76.82 C35.35,77.62 35.93,78.47 36.88,78.28 L41.48,77.36 C42.59,77.14 43.28,77.96 43.01,79.06 L41.82,84.06 C41.62,84.87 42.36,85.59 43.17,85.38 L47.66,84.18 C49.07,83.73 50.33,84.54 50.06,86.02 L49.31,90.6 C49.17,91.42 49.97,92.09 50.76,91.81 L55.2,90.24 C56.26,89.86 57.62,90.27 57.52,91.39 L57.01,96.63 C56.93,97.47 57.79,98.07 58.55,97.73 L62.81,95.8 C63.83,95.34 64.89,95.69 64.83,97.55 L64.84,102.23 C64.84,103.08 65.77,103.61 66.5,103.16 L76.39,97.17 C76.17,97.07 88.95,65.16 88.95,65.16 C51,45.05 31.85,14.09 26.26,4.83 Z M25.09,17.35 C24.83,18.69 23.73,19.78 22.39,20.02 C19.98,20.47 17.92,18.39 18.38,15.98 C18.64,14.64 19.74,13.55 21.08,13.31 C23.49,12.86 25.56,14.94 25.09,17.35 Z" fill="#78A3AC"/>
  <path d="M26.26,4.83 L7.17,16.87 C6.42,17.34 6.51,18.45 7.32,18.8 L12.13,20.88 C13.08,21.29 13.36,22.5 12.69,23.29 L9.45,27.1 C8.92,27.72 9.23,28.69 10.03,28.88 L14.56,29.96 C15.63,30.21 16.09,31.47 15.45,32.36 L12.76,36.1 C12.28,36.77 12.68,37.7 13.49,37.82 L18.17,38.51 C19.27,38.67 19.84,39.92 19.25,40.86 L16.77,44.77 C16.33,45.47 16.79,46.38 17.61,46.45 L22.34,46.82 C23.46,46.91 24.11,48.13 23.56,49.11 L21.34,53.09 C20.93,53.82 21.46,54.73 22.3,54.72 L27.01,54.69 C28.15,54.68 28.91,55.88 28.4,56.91 L26.3,61.2 C25.93,61.95 26.51,62.82 27.35,62.78 L32.08,62.51 C33.21,62.45 34.02,63.58 33.59,64.63 L31.8,69 C31.48,69.78 32.12,70.61 32.95,70.5 L37.63,69.91 C38.75,69.77 39.64,70.85 39.29,71.92 L37.8,76.43 C37.54,77.23 38.23,78.01 39.06,77.85 L43.66,76.93 C44.77,76.71 45.73,77.71 45.46,78.81 L44.33,83.42 C44.13,84.23 44.87,84.95 45.68,84.74 L50.17,83.54 C51.58,83.09 52.38,83.81 52.11,85.3 L51.36,89.88 C51.22,90.7 52.02,91.37 52.81,91.09 L57.25,89.52 C58.31,89.14 59.4,89.99 59.3,91.11 L58.88,95.79 C58.8,96.63 59.66,97.23 60.42,96.89 L64.68,94.96 C65.7,94.5 66.85,95.24 66.86,96.36 L66.87,101.04 C66.87,101.89 67.8,102.42 68.53,101.97 L78.42,95.98 C78.2,95.88 92.17,66.45 92.17,66.45 C46.39,42.18 26.26,4.83 26.26,4.83 Z M27,17.91 C26.74,19.25 25.64,20.34 24.3,20.58 C21.89,21.03 19.83,18.95 20.29,16.54 C20.55,15.2 21.65,14.11 22.99,13.87 C25.4,13.42 27.46,15.5 27,17.91 Z" fill="#C3D9DB"/>
  <path d="M26.26,4.83 L7.17,16.87 C6.42,17.34 6.51,18.45 7.32,18.8 L12.13,20.88 C13.08,21.29 13.36,22.5 12.69,23.29 L9.45,27.1 C8.92,27.72 9.23,28.69 10.03,28.88 L14.56,29.96 C15.63,30.21 16.09,31.47 15.45,32.36 L12.76,36.1 C12.28,36.77 12.68,37.7 13.49,37.82 L18.17,38.51 C19.27,38.67 19.84,39.92 19.25,40.86 L16.77,44.77 C16.33,45.47 16.79,46.38 17.61,46.45 L22.34,46.82 C23.46,46.91 24.11,48.13 23.56,49.11 L21.34,53.09 C20.93,53.82 21.46,54.73 22.3,54.72 L27.01,54.69 C28.15,54.68 28.91,55.88 28.4,56.91 L26.3,61.2 C25.93,61.95 26.51,62.82 27.35,62.78 L32.08,62.51 C33.21,62.45 34.02,63.58 33.59,64.63 L31.8,69 C31.48,69.78 32.12,70.61 32.95,70.5 L37.63,69.91 C38.75,69.77 39.64,70.85 39.29,71.92 L37.8,76.43 C37.54,77.23 38.23,78.01 39.06,77.85 L43.66,76.93 C44.77,76.71 45.73,77.71 45.46,78.81 L44.33,83.42 C44.13,84.23 44.87,84.95 45.68,84.74 L50.17,83.54 C51.58,83.09 52.38,83.81 52.11,85.3 L51.36,89.88 C51.22,90.7 52.02,91.37 52.81,91.09 L57.25,89.52 C58.31,89.14 59.4,89.99 59.3,91.11 L58.88,95.79 C58.8,96.63 59.66,97.23 60.42,96.89 L64.68,94.96 C65.7,94.5 66.85,95.24 66.86,96.36 L66.87,101.04 C66.87,101.89 67.8,102.42 68.53,101.97 L78.42,95.98 C78.2,95.88 92.17,66.45 92.17,66.45 C46.39,42.18 26.26,4.83 26.26,4.83 Z M27,17.91 C26.74,19.25 25.64,20.34 24.3,20.58 C21.89,21.03 19.83,18.95 20.29,16.54 C20.55,15.2 21.65,14.11 22.99,13.87 C25.4,13.42 27.46,15.5 27,17.91 Z" fill="#C9E3E6"/>
  <path d="M120.52,82.12 L98.76,67.83 C91.37,64.34 86.96,67.26 84.7,71.07 L75.35,85.65 C73.31,88.82 73.23,91.49 73.47,96.29 L74.31,106.45 C74.76,111.06 78.59,113.71 79.29,114.21 L89.34,121.57 C89.34,121.57 97.31,128.15 103.93,119.62 L120.52,82.12 Z M98.61,106.82 C96.84,109.26 93.63,110.71 91.19,109.06 C88.75,107.41 87.26,105.83 89.16,103.03 L98.62,89.2 C100.52,86.4 103.74,84.37 106.18,86.02 C108.62,87.67 109.06,91.28 107.17,94.08 L98.61,106.82 Z" fill="#A06841"/>
  <path d="M120.52,82.12 L99.43,68.2 C96.39,66.25 92.29,67.2 90.28,70.33 L80.93,84.91 C78.75,88.4 78.26,91.14 78.55,95.94 L79.11,105.45 C79.41,109.33 80.54,110.53 84.39,113.57 L95.31,121.03 C98.36,122.98 102.45,122.03 104.46,118.89 L122.4,91.31 C124.41,88.2 123.57,84.08 120.52,82.12 Z M102.06,108.38 C100.23,111.23 96.51,112.1 93.74,110.32 C90.97,108.55 90.21,104.8 92.03,101.95 L102.25,86.02 C104.08,83.17 107.8,82.3 110.57,84.08 C113.34,85.85 114.1,89.6 112.28,92.45 L102.06,108.38 Z" fill="#D68B52"/>
  <path d="M44.34,29.12 L34.87,70.24 L37.65,69.89 C38.77,69.75 39.66,70.83 39.31,71.9 L37.82,76.41 C37.56,77.21 38.25,77.99 39.08,77.83 L43.68,76.91 C44.79,76.69 45.75,77.69 45.48,78.79 L44.35,83.4 C44.15,84.21 44.89,84.93 45.7,84.72 L50.19,83.52 C51.6,83.07 52.4,83.79 52.13,85.28 L51.38,89.86 C51.24,90.68 52.04,91.35 52.83,91.07 L54.52,90.47 L67.09,50.19 C57.88,43.04 50.33,35.73 44.34,29.12 Z" fill="#FFFFFF" opacity="0.5"/>
</svg>
